X:84
T:Fiery Clock Fyece
R:Jig
C:Trad
M:6/8
L:1/8
K:G
d |:g2 g G2 A | B2 c d2 e | =f2 f A2 B | c2 d e2 f |
  | g2 g G2 A | B2 c d2 d | efg a2 f |1 g3 g2 d :|2 g3 g2 G|
  |:B2 B GAB | c2 B A2 G | F2 E D2 E | F2 G A2 ^A |
  | B2 B GAB | c2 B A2 G | FED E2 F |1 G3 G2 G:|2 G3 G2 d|
